;START_OF_HEADER
;HEADER_VERSION:0.1
;FLAVOR:Griffin
;GENERATOR.NAME:Cura_SteamEngine
;GENERATOR.VERSION:3.0.4
;GENERATOR.BUILD_DATE:2017-10-31
;TARGET_MACHINE.NAME:Ultimaker 3
;EXTRUDER_TRAIN.0.INITIAL_TEMPERATURE:205
;EXTRUDER_TRAIN.0.MATERIAL.VOLUME_USED:1239
;EXTRUDER_TRAIN.0.MATERIAL.GUID:506c9f0d-e3aa-4bd4-b2d2-23e2425b1aa9
;EXTRUDER_TRAIN.0.NOZZLE.DIAMETER:0.4
;EXTRUDER_TRAIN.0.NOZZLE.NAME:AA 0.4
;BUILD_PLATE.INITIAL_TEMPERATURE:60
;PRINT.TIME:2137
;PRINT.SIZE.MIN.X:9
;PRINT.SIZE.MIN.Y:6
;PRINT.SIZE.MIN.Z:0.27
;PRINT.SIZE.MAX.X:131.993
;PRINT.SIZE.MAX.Y:122.762
;PRINT.SIZE.MAX.Z:10.87
;END_OF_HEADER
;Generated with Cura_SteamEngine 3.0.4
T0
M82 ; absolute extrusion mode

G92 E0
M109 S205
G0 F15000 X9 Y6 Z2
G280
G1 F1500 E-6.5
;LAYER_COUNT:107
;LAYER:0
M107
M204 S625
M205 X6 Y6
G0 F4285.7 X102.779 Y94.832 Z0.27
M204 S500
M205 X5 Y5
;TYPE:SKIRT
G1 F1500 E0
G1 F1200 X103.29 Y94.298 E0.01095
G1 X103.589 Y94.034 E0.01686
G1 X104.021 Y93.674 E0.02519
G1 X104.613 Y93.232 E0.03613
G1 X105.249 Y92.858 E0.04706
G1 X105.923 Y92.554 E0.05801
G1 X106.625 Y92.324 E0.06896
G1 X107.348 Y92.172 E0.0799
G1 X108.375 Y92.092 E0.09516
G1 X108.819 Y92.091 E0.10174
G1 X109.556 Y92.129 E0.11267
G1 X109.88 Y92.181 E0.11753
G1 X123.214 Y92.132 E0.31505
G1 X123.695 Y92.063 E0.32225
G1 X124.434 Y92.037 E0.3332
G1 X125.17 Y92.092 E0.34414
G1 X125.731 Y92.188 E0.35257
G1 X126.113 Y92.27 E0.35836
G1 X126.826 Y92.464 E0.3693
G1 X127.514 Y92.734 E0.38025
G1 X128.168 Y93.076 E0.39118
G1 X128.782 Y93.487 E0.40213
G1 X129.47 Y94.08 E0.41558
G1 X129.867 Y94.471 E0.42384
G1 X130.365 Y95.017 E0.43478
G1 X130.8 Y95.614 E0.44573
G1 X131.169 Y96.254 E0.45667
G1 X131.449 Y96.886 E0.46691
G1 X131.542 Y97.128 E0.47075
G1 X131.769 Y97.831 E0.48169
G1 X131.919 Y98.554 E0.49263
G1 X131.99 Y99.289 E0.50357
G1 X131.993 Y99.776 E0.51078
G1 X131.577 Y113.95 E0.72084
G1 X131.607 Y114.076 E0.72276
G1 X131.702 Y114.808 E0.73369
G1 X131.717 Y115.547 E0.74464
G1 X131.652 Y116.282 E0.75557
G1 X131.508 Y117.007 E0.76652
G1 X131.34 Y117.564 E0.77514
G1 X131.227 Y117.888 E0.78022
G1 X130.947 Y118.571 E0.79116
G1 X130.594 Y119.22 E0.8021
G1 X130.173 Y119.827 E0.81304
G1 X129.689 Y120.385 E0.82398
G1 X129.147 Y120.887 E0.83493
G1 X128.408 Y121.423 E0.84845
G1 X127.947 Y121.712 E0.85651
G1 X127.301 Y122.07 E0.86745
G1 X126.62 Y122.356 E0.87839
G1 X125.912 Y122.566 E0.88933
G1 X125.185 Y122.699 E0.90028
G1 X124.326 Y122.754 E0.91303
G1 X108.731 Y122.762 E1.14404
G1 X107.993 Y122.722 E1.15499
G1 X107.264 Y122.603 E1.16593
G1 X106.552 Y122.406 E1.17688
G1 X105.914 Y122.155 E1.18703
G1 X105.505 Y121.97 E1.19368
G1 X104.85 Y121.63 E1.20462
G1 X104.235 Y121.221 E1.21556
G1 X103.668 Y120.748 E1.22649
G1 X103.155 Y120.216 E1.23744
G1 X102.703 Y119.632 E1.24838
G1 X102.317 Y119.002 E1.25933
G1 X102.135 Y118.641 E1.26532
G1 X101.928 Y118.198 E1.27256
G1 X101.652 Y117.513 E1.2835
G1 X101.451 Y116.802 E1.29444
G1 X101.329 Y116.074 E1.30538
G1 X101.286 Y115.336 E1.31633
G1 X101.323 Y114.599 E1.32726
G1 X101.427 Y113.948 E1.33703
G1 X100.996 Y99.831 E1.54624
G1 X101.014 Y99.093 E1.55718
G1 X101.111 Y98.361 E1.56812
G1 X101.286 Y97.643 E1.57906
G1 X101.491 Y97.063 E1.58818
G1 X101.631 Y96.717 E1.59371
G1 X101.945 Y96.048 E1.60465
G1 X102.329 Y95.417 E1.61559
G1 X102.779 Y94.832 E1.62653
M204 S625
M205 X6 Y6
G0 F4285.7 X103.081 Y95.017
M204 S500
M205 X5 Y5
G1 F1200 X103.813 Y94.303 E1.64167
G1 X104.245 Y93.943 E1.65
G1 X104.822 Y93.514 E1.66066
G1 X105.444 Y93.151 E1.67132
G1 X106.102 Y92.86 E1.68198
G1 X106.788 Y92.643 E1.69264
G1 X107.494 Y92.504 E1.7033
G1 X108.375 Y92.442 E1.71638
G1 X108.819 Y92.441 E1.72296
G1 X109.538 Y92.479 E1.73362
G1 X109.854 Y92.532 E1.73837
G1 X123.23 Y92.482 E1.93652
G1 X123.782 Y92.407 E1.94477
G1 X124.501 Y92.389 E1.95542
G1 X125.218 Y92.452 E1.96608
G1 X125.658 Y92.53 E1.9727
G1 X126.04 Y92.612 E1.97849
G1 X126.734 Y92.802 E1.98915
G1 X127.403 Y93.068 E1.99981
G1 X128.038 Y93.406 E2.01047
G1 X128.631 Y93.812 E2.02112
G1 X129.225 Y94.33 E2.03279
G1 X129.622 Y94.721 E2.04105
G1 X130.105 Y95.253 E2.05169
G1 X130.527 Y95.836 E2.06235
G1 X130.881 Y96.462 E2.073
G1 X131.122 Y97.011 E2.08189
G1 X131.215 Y97.253 E2.08573
G1 X131.435 Y97.938 E2.09638
G1 X131.578 Y98.643 E2.10704
G1 X131.642 Y99.36 E2.1177
G1 X131.643 Y99.766 E2.12372
G1 X131.225 Y113.984 E2.33442
G1 X131.267 Y114.158 E2.33708
G1 X131.356 Y114.871 E2.34772
G1 X131.365 Y115.591 E2.35839
G1 X131.295 Y116.307 E2.36904
G1 X131.145 Y117.011 E2.3797
G1 X131.01 Y117.448 E2.38648
G1 X130.897 Y117.772 E2.39156
G1 X130.623 Y118.437 E2.40222
G1 X130.276 Y119.068 E2.41288
G1 X129.862 Y119.656 E2.42354
G1 X129.385 Y120.195 E2.4342
G1 X128.851 Y120.677 E2.44486
G1 X128.222 Y121.126 E2.4563
G1 X127.761 Y121.415 E2.46436
G1 X127.131 Y121.763 E2.47502
G1 X126.467 Y122.038 E2.48567
G1 X125.776 Y122.239 E2.49633
G1 X125.067 Y122.361 E2.50699
G1 X124.325 Y122.404 E2.518
G1 X108.73 Y122.412 E2.74901
G1 X108.012 Y122.372 E2.75966
G1 X107.302 Y122.253 E2.77033
G1 X106.611 Y122.056 E2.78097
G1 X106.058 Y121.837 E2.78978
G1 X105.649 Y121.652 E2.79643
G1 X105.011 Y121.319 E2.80709
G1 X104.414 Y120.918 E2.81775
G1 X103.865 Y120.453 E2.8284
G1 X103.371 Y119.93 E2.83906
G1 X102.938 Y119.355 E2.84972
G1 X102.452 Y118.493 E2.86438
G1 X102.245 Y118.05 E2.87163
G1 X101.977 Y117.382 E2.88229
G1 X101.785 Y116.689 E2.89294
G1 X101.671 Y115.979 E2.90359
G1 X101.636 Y115.26 E2.91426
G1 X101.682 Y114.542 E2.92491
G1 X101.779 Y113.989 E2.93323
G1 X101.346 Y99.821 E3.1432
G1 X101.364 Y99.102 E3.15386
G1 X101.462 Y98.389 E3.16452
G1 X101.638 Y97.691 E3.17518
G1 X101.816 Y97.194 E3.183
G1 X101.956 Y96.848 E3.18853
G1 X102.262 Y96.197 E3.19919
G1 X102.639 Y95.585 E3.20983
G1 X103.081 Y95.017 E3.2205
M204 S625
M205 X6 Y6
G0 F4285.7 X103.383 Y95.204
M204 S500
M205 X5 Y5
G1 F1200 X104.037 Y94.572 E3.23397
G1 X104.469 Y94.212 E3.2423
G1 X105.031 Y93.795 E3.25267
G1 X105.637 Y93.445 E3.26303
G1 X106.279 Y93.167 E3.2734
G1 X106.949 Y92.964 E3.28377
G1 X107.637 Y92.838 E3.29413
G1 X108.376 Y92.792 E3.30509
G1 X108.82 Y92.791 E3.31167
G1 X109.519 Y92.829 E3.32204
G1 X109.827 Y92.882 E3.32667
G1 X123.236 Y92.832 E3.5253
G1 X123.868 Y92.751 E3.53474
G1 X124.567 Y92.742 E3.5451
G1 X125.585 Y92.872 E3.5603
G1 X125.967 Y92.954 E3.56609
G1 X126.641 Y93.14 E3.57645
G1 X127.29 Y93.402 E3.58681
G1 X127.905 Y93.735 E3.59717
G1 X128.478 Y94.137 E3.60754
G1 X128.979 Y94.579 E3.61744
G1 X129.376 Y94.97 E3.62569
G1 X129.846 Y95.489 E3.63607
G1 X130.253 Y96.058 E3.64643
G1 X130.593 Y96.669 E3.65679
G1 X130.795 Y97.137 E3.66434
G1 X130.888 Y97.379 E3.66818
G1 X131.102 Y98.045 E3.67854
G1 X131.238 Y98.732 E3.68891
G1 X131.293 Y99.756 E3.7041
G1 X130.874 Y114.021 E3.91551
G1 X130.926 Y114.239 E3.91883
G1 X131.009 Y114.934 E3.9292
G1 X131.013 Y115.633 E3.93955
G1 X130.937 Y116.329 E3.94992
G1 X130.679 Y117.333 E3.96528
G1 X130.566 Y117.657 E3.97036
G1 X130.299 Y118.303 E3.98072
G1 X129.959 Y118.915 E3.99109
G1 X129.551 Y119.484 E4.00146
G1 X129.082 Y120.003 E4.01182
G1 X128.556 Y120.465 E4.02219
G1 X128.036 Y120.83 E4.0316
G1 X127.575 Y121.119 E4.03966
G1 X126.962 Y121.456 E4.05002
G1 X126.315 Y121.721 E4.06038
G1 X125.641 Y121.91 E4.07075
G1 X124.95 Y122.022 E4.08112
G1 X124.325 Y122.054 E4.09039
G1 X108.73 Y122.062 E4.3214
G1 X108.032 Y122.022 E4.33176
G1 X107.342 Y121.903 E4.34213
G1 X106.671 Y121.706 E4.35249
G1 X106.203 Y121.518 E4.35996
G1 X105.794 Y121.333 E4.36661
G1 X105.174 Y121.008 E4.37698
G1 X104.595 Y120.615 E4.38735
G1 X104.064 Y120.159 E4.39772
G1 X103.589 Y119.645 E4.40808
G1 X103.176 Y119.08 E4.41845
G1 X102.769 Y118.345 E4.4309
G1 X102.562 Y117.902 E4.43814
G1 X102.302 Y117.252 E4.44851
G1 X102.119 Y116.577 E4.45887
G1 X102.013 Y115.885 E4.46924
G1 X101.987 Y115.186 E4.4796
G1 X102.041 Y114.488 E4.48997
G1 X102.13 Y114.026 E4.49694
G1 X101.696 Y99.81 E4.70763
G1 X101.714 Y99.111 E4.71798
G1 X101.813 Y98.418 E4.72835
G1 X101.989 Y97.741 E4.73872
G1 X102.14 Y97.326 E4.74526
G1 X102.28 Y96.98 E4.75079
G1 X102.579 Y96.347 E4.76116
G1 X102.949 Y95.753 E4.77152
G1 X103.383 Y95.204 E4.78189
M204 S625
M205 X6 Y6
G0 F4285.7 X103.684 Y95.393
M204 S500
M205 X5 Y5
G1 F1200 X104.261 Y94.841 E4.79372
G1 X104.693 Y94.481 E4.80205
G1 X105.24 Y94.077 E4.81212
G1 X105.83 Y93.741 E4.82218
G1 X106.455 Y93.476 E4.83224
G1 X107.108 Y93.286 E4.84231
G1 X107.778 Y93.175 E4.85237
G1 X108.377 Y93.142 E4.86126
G1 X108.821 Y93.141 E4.86784
G1 X109.499 Y93.179 E4.87789
G1 X109.798 Y93.232 E4.88239
G1 X123.256 Y93.182 E5.08175
G1 X123.277 Y93.177 E5.08207
G1 X123.951 Y93.096 E5.09213
G1 X124.631 Y93.096 E5.1022
G1 X125.511 Y93.215 E5.11535
G1 X125.893 Y93.297 E5.12114
G1 X126.548 Y93.478 E5.13121
G1 X127.177 Y93.735 E5.14127
G1 X127.771 Y94.064 E5.15133
G1 X128.323 Y94.461 E5.1614
G1 X128.733 Y94.828 E5.16956
G1 X129.13 Y95.219 E5.17781
G1 X129.586 Y95.724 E5.18789
G1 X129.978 Y96.278 E5.19794
G1 X130.303 Y96.875 E5.20801
G1 X130.469 Y97.262 E5.21425
G1 X130.562 Y97.504 E5.21809
G1 X130.768 Y98.152 E5.22816
G1 X130.896 Y98.819 E5.23822
G1 X130.944 Y99.746 E5.25197
G1 X130.523 Y114.063 E5.46415
G1 X130.584 Y114.32 E5.46806
G1 X130.662 Y114.995 E5.47813
G1 X130.66 Y115.674 E5.48818
G1 X130.578 Y116.349 E5.49826
G1 X130.349 Y117.218 E5.51157
G1 X130.236 Y117.542 E5.51665
G1 X129.975 Y118.169 E5.52671
G1 X129.642 Y118.761 E5.53677
G1 X129.242 Y119.31 E5.54684
G1 X128.78 Y119.809 E5.55691
G1 X128.263 Y120.249 E5.56697
G1 X127.85 Y120.533 E5.57439
G1 X127.389 Y120.822 E5.58245
G1 X126.794 Y121.148 E5.5925
G1 X126.163 Y121.403 E5.60258
G1 X125.508 Y121.581 E5.61264
G1 X124.836 Y121.681 E5.6227
G1 X124.325 Y121.704 E5.63028
G1 X108.73 Y121.712 E5.86129
G1 X108.052 Y121.672 E5.87135
G1 X107.383 Y121.553 E5.88142
G1 X106.732 Y121.357 E5.89149
G1 X106.347 Y121.199 E5.89765
G1 X105.938 Y121.014 E5.9043
G1 X105.336 Y120.698 E5.91438
G1 X104.776 Y120.313 E5.92444
G1 X104.265 Y119.866 E5.9345
G1 X103.81 Y119.361 E5.94457
G1 X103.417 Y118.807 E5.95463
G1 X103.086 Y118.197 E5.96491
G1 X102.879 Y117.754 E5.97215
G1 X102.628 Y117.122 E5.98223
G1 X102.453 Y116.466 E5.99229
G1 X102.356 Y115.793 E6.00236
G1 X102.339 Y115.114 E6.01242
G1 X102.402 Y114.438 E6.02248
G1 X102.482 Y114.064 E6.02814
G1 X102.046 Y99.799 E6.23955
G1 X102.065 Y99.12 E6.24961
G1 X102.164 Y98.448 E6.25968
G1 X102.341 Y97.792 E6.26974
G1 X102.465 Y97.457 E6.27503
G1 X102.605 Y97.111 E6.28056
G1 X102.896 Y96.497 E6.29063
G1 X103.258 Y95.922 E6.30069
G1 X103.684 Y95.393 E6.31075
M204 S625
M205 X6 Y6
G0 F4285.7 X103.984 Y95.584
M204 S500
M205 X5 Y5
G1 F1200 X104.485 Y95.109 E6.32098
G1 X104.917 Y94.749 E6.32931
G1 X105.448 Y94.359 E6.33907
G1 X106.021 Y94.036 E6.34881
G1 X106.63 Y93.785 E6.35857
G1 X107.265 Y93.61 E6.36833
G1 X107.916 Y93.513 E6.37808
G1 X108.378 Y93.492 E6.38493
G1 X108.822 Y93.491 E6.39151
G1 X109.479 Y93.529 E6.40126
G1 X109.769 Y93.582 E6.40562
G1 X123.308 Y93.532 E6.60618
G1 X123.379 Y93.515 E6.60726
G1 X124.033 Y93.443 E6.61701
G1 X124.692 Y93.45 E6.62677
G1 X125.438 Y93.557 E6.63794
G1 X125.82 Y93.639 E6.64372
G1 X126.454 Y93.816 E6.65347
G1 X127.062 Y94.068 E6.66322
G1 X127.635 Y94.393 E6.67298
G1 X128.165 Y94.784 E6.68274
G1 X128.488 Y95.078 E6.68921
G1 X128.885 Y95.469 E6.69746
G1 X129.325 Y95.959 E6.70722
G1 X129.703 Y96.498 E6.71697
G1 X130.012 Y97.079 E6.72672
G1 X130.142 Y97.388 E6.73168
G1 X130.235 Y97.63 E6.73552
G1 X130.433 Y98.258 E6.74528
G1 X130.554 Y98.905 E6.75503
G1 X130.594 Y99.735 E6.76734
G1 X130.172 Y114.097 E6.98018
G1 X130.243 Y114.4 E6.98479
G1 X130.315 Y115.055 E6.99455
G1 X130.306 Y115.713 E7.0043
G1 X130.218 Y116.366 E7.01406
G1 X130.018 Y117.103 E7.02537
G1 X129.905 Y117.427 E7.03045
G1 X129.651 Y118.034 E7.0402
G1 X129.325 Y118.606 E7.04995
G1 X128.932 Y119.135 E7.05972
G1 X128.479 Y119.612 E7.06946
G1 X127.97 Y120.03 E7.07922
G1 X127.665 Y120.236 E7.08467
G1 X127.204 Y120.525 E7.09273
G1 X126.625 Y120.841 E7.1025
G1 X126.013 Y121.084 E7.11225
G1 X125.376 Y121.251 E7.12201
G1 X124.724 Y121.339 E7.13175
G1 X124.325 Y121.354 E7.13767
G1 X108.73 Y121.362 E7.36868
G1 X108.072 Y121.322 E7.37845
G1 X107.425 Y121.203 E7.38819
G1 X106.796 Y121.007 E7.39795
G1 X106.491 Y120.88 E7.40285
G1 X106.082 Y120.695 E7.4095
G1 X105.5 Y120.388 E7.41924
G1 X104.959 Y120.012 E7.429
G1 X104.468 Y119.574 E7.43875
G1 X104.033 Y119.079 E7.44851
G1 X103.661 Y118.535 E7.45827
G1 X103.403 Y118.049 E7.46642
G1 X103.196 Y117.606 E7.47367
G1 X102.954 Y116.993 E7.48343
G1 X102.788 Y116.356 E7.49318
G1 X102.7 Y115.703 E7.50294
G1 X102.692 Y115.045 E7.51269
G1 X102.764 Y114.39 E7.52245
G1 X102.833 Y114.096 E7.52692
G1 X102.396 Y99.789 E7.73896
G1 X102.415 Y99.131 E7.74871
G1 X102.515 Y98.48 E7.75847
G1 X102.789 Y97.588 E7.77229
G1 X102.929 Y97.242 E7.77782
G1 X103.213 Y96.648 E7.78757
G1 X103.566 Y96.092 E7.79733
G1 X103.984 Y95.584 E7.80707
M204 S625
M205 X6 Y6
G0 F4285.7 X104.284 Y95.776
M204 S500
M205 X5 Y5
G1 F1200 X104.709 Y95.378 E7.8157
G1 X105.141 Y95.018 E7.82403
G1 X105.655 Y94.642 E7.83346
G1 X106.212 Y94.333 E7.8429
G1 X106.803 Y94.096 E7.85233
G1 X107.419 Y93.936 E7.86176
G1 X108.051 Y93.853 E7.8712
G1 X108.379 Y93.842 E7.87606
G1 X108.823 Y93.841 E7.88264
G1 X109.458 Y93.88 E7.89206
G1 X109.736 Y93.932 E7.89625
G1 X123.354 Y93.882 E8.09798
G1 X123.479 Y93.853 E8.09988
G1 X124.113 Y93.789 E8.10932
G1 X124.75 Y93.806 E8.11876
G1 X125.364 Y93.899 E8.12796
G1 X125.746 Y93.981 E8.13375
G1 X126.359 Y94.154 E8.14318
G1 X126.946 Y94.401 E8.15262
G1 X127.497 Y94.721 E8.16205
G1 X128.003 Y95.107 E8.17148
G1 X128.242 Y95.327 E8.17629
G1 X128.639 Y95.718 E8.18455
G1 X129.064 Y96.193 E8.19399
G1 X129.426 Y96.717 E8.20342
G1 X129.815 Y97.513 E8.21655
G1 X129.908 Y97.755 E8.22039
G1 X130.099 Y98.363 E8.22983
G1 X130.212 Y98.99 E8.23927
G1 X130.244 Y99.725 E8.25016
G1 X129.821 Y114.13 E8.46364
G1 X129.902 Y114.48 E8.46896
G1 X129.967 Y115.114 E8.47841
G1 X129.952 Y115.75 E8.48783
G1 X129.858 Y116.38 E8.49726
G1 X129.688 Y116.987 E8.5066
G1 X129.575 Y117.311 E8.51169
G1 X129.328 Y117.898 E8.52112
G1 X129.009 Y118.45 E8.53056
G1 X128.624 Y118.957 E8.53999
G1 X128.178 Y119.412 E8.54943
G1 X127.479 Y119.94 E8.56241
G1 X127.018 Y120.229 E8.57047
G1 X126.458 Y120.533 E8.57991
G1 X125.864 Y120.764 E8.58935
G1 X125.247 Y120.919 E8.59877
G1 X124.325 Y121.004 E8.61249
G1 X108.73 Y121.012 E8.8435
G1 X108.094 Y120.972 E8.85294
G1 X107.468 Y120.853 E8.86238
G1 X106.635 Y120.561 E8.87546
G1 X106.226 Y120.376 E8.88211
G1 X105.664 Y120.078 E8.89153
G1 X105.143 Y119.711 E8.90097
G1 X104.672 Y119.282 E8.91041
G1 X104.259 Y118.798 E8.91983
G1 X103.909 Y118.265 E8.92928
G1 X103.72 Y117.9 E8.93537
G1 X103.513 Y117.457 E8.94261
G1 X103.28 Y116.865 E8.95203
G1 X103.124 Y116.247 E8.96148
G1 X103.045 Y115.615 E8.97091
G1 X103.047 Y114.978 E8.98035
G1 X103.128 Y114.347 E8.98977
G1 X103.184 Y114.132 E8.99306
G1 X102.745 Y99.778 E9.20579
G1 X102.766 Y99.141 E9.21523
G1 X102.866 Y98.513 E9.22465
G1 X103.114 Y97.719 E9.23697
G1 X103.254 Y97.373 E9.2425
G1 X103.529 Y96.799 E9.25193
G1 X103.874 Y96.264 E9.26136
G1 X104.284 Y95.776 E9.2708
M204 S625
M205 X6 Y6
G0 F4285.7 X104.182 Y96.437
M204 S500
M205 X5 Y5
G1 F1200 X104.582 Y95.971 E9.2799
G1 X104.933 Y95.647 E9.28698
G1 X105.365 Y95.287 E9.29531
G1 X105.862 Y94.925 E9.30442
G1 X106.401 Y94.631 E9.31351
G1 X106.974 Y94.409 E9.32261
G1 X107.571 Y94.263 E9.33172
G1 X108.379 Y94.192 E9.34373
G1 X108.823 Y94.191 E9.35031
G1 X109.437 Y94.23 E9.35942
G1 X109.706 Y94.282 E9.36348
G1 X123.395 Y94.231 E9.56626
G1 X123.578 Y94.191 E9.56904
G1 X124.19 Y94.137 E9.57814
G1 X124.804 Y94.163 E9.58724
G1 X125.291 Y94.241 E9.59455
G1 X125.673 Y94.323 E9.60034
G1 X126.264 Y94.491 E9.60944
G1 X126.828 Y94.734 E9.61853
G1 X127.356 Y95.048 E9.62763
G1 X127.997 Y95.577 E9.63995
G1 X128.394 Y95.968 E9.6482
G1 X128.802 Y96.426 E9.65729
G1 X129.148 Y96.934 E9.66639
G1 X129.489 Y97.639 E9.67799
G1 X129.582 Y97.881 E9.68183
G1 X129.764 Y98.468 E9.69094
G1 X129.869 Y99.073 E9.70003
G1 X129.894 Y99.715 E9.70955
G1 X129.469 Y114.166 E9.92371
G1 X129.56 Y114.559 E9.92968
G1 X129.619 Y115.171 E9.93879
G1 X129.598 Y115.785 E9.94789
G1 X129.497 Y116.391 E9.95699
G1 X129.357 Y116.872 E9.96441
